X:1
T:Title
%%score { ( 1 3 ) | ( 2 4 ) }
L:1/8
Q:1/4=84
M:6/8
K:Eb
V:1 treble nm="Grand Piano"
V:3 treble 
V:2 bass 
V:4 bass 
V:1
 [EG]2 [FA] [GB]2 [Ge] | [_Gd]2 [Gc] [=GB]3 | G2 E A2 G | [EG]3 [DF]3 | [EG]2 [FA] [GB]2 [Ge] | %5
w: Haldor~Lillenas * * *|||||
 [_Gd]2 [Gc] [=GB]2 [_Gc] | [Fd]2 [DF] [Ge]2 [Fd] |[M:13/16] [Ec]/-[Ec]/-[Ec]-<[Ec]B-<B-[AB]3/2 | %8
w: |||
[M:3/4] [EGB]2 [B,EG] [C=EA]2 [CGB] | [CGB]3 [CFA]3 | [DFA]2 [DF] [Bd]2 [Ac] | [_Gc]3 [B,=GB]3 | %12
w: ||||
 [B,EG]>[=A,E_G] [B,E=G] [B,FA]2 [FA] |[M:7/8] [B,GB]>[B,EG][_DE] [CEe]3 E/-[=A,EF]/ | %14
w: ||
[M:3/4] [B,EG]2 [G,E] [CFA]2 [CEG] | [A,F]3 [G,E]3 |] %16
w: ||
V:2
 [E,B,]2 [E,B,] [E,E]2 [E,B,] | [E,=A,]2 [E,A,] [E,B,]3 | [E,B,E]2 [E,G,] [E,CE]2 [E,B,E] | %3
 [B,,B,]3 [B,,B,]3 | [E,B,]2 [E,B,] [E,E]2 [E,B,] | [E,=A,]2 [E,A,] E,2 =E, | %6
 [F,B,]2 [F,B,] [F,=A,]2 [F,B,] |[M:13/16] [F,=A,]/-[F,A,]/-[F,A,]-<[F,A,] z/ z/ z D3/2 | %8
[M:3/4] E,2 E, C,2 =E, | F,3 F,3 | B,,2 [B,,B,] [B,,B,]2 [D,B,] | [E,=A,]3 E,3 | E,>E, E, D,2 B, | %13
[M:7/8] E,>E,G,, A,,3 C,/=B,,/ |[M:3/4] B,,2 B,,F,, G,,A,, | z2 D E,3 |] %16
V:3
 x6 | x6 | x6 | x6 | x6 | z3 B,3 | x6 |[M:13/16] z/ z/ z/ z/ z [B,D]-<[B,D] z/ z |[M:3/4] x6 | x6 | %10
 x6 | x6 | x6 |[M:7/8] z z z z z2 .G, |[M:3/4] x6 | C2 z2 z2 |] %16
V:4
 x6 | x6 | x6 | x6 | x6 | x6 | x6 |[M:13/16] z/ z/ z/ z/ z B,,/-B,,/-B,,/-B,,-<B,, |[M:3/4] x6 | %9
 x6 | x6 | x6 | x6 |[M:7/8] x7 |[M:3/4] x6 | B,,4 z2 |] %16

